img/section-option-4.svg

<svg width="99" height="77" viewBox="0 0 99 77" fill="none" xmlns="http://www.w3.org/2000/svg">
<path fill-rule="evenodd" clip-rule="evenodd" d="M81.3619 6.36138H19.1883V17.5371H13.7102V0.996094H86.8412V31.0806H81.3619V6.36138ZM38.7969 76.9963H-0.00012207V19.9742H38.7969V76.9963ZM18.3481 72.3027C18.3481 73.3102 19.1842 74.1379 20.2168 74.1379C21.2504 74.1379 22.0905 73.3102 22.0877 72.3027C22.0877 71.294 21.2504 70.4724 20.2168 70.4724C19.1842 70.4724 18.3481 71.294 18.3481 72.3027ZM33.1905 25.4691H5.61039V67.5417H33.1884L33.1905 25.4691ZM41.2974 42.8722H70.1105V48.2383H41.2974V42.8722ZM72.9427 76.1053V33.1624H98.9999V76.1053H72.9427ZM87.179 35.5573C87.179 35.2153 86.8981 34.9406 86.55 34.9406C86.2022 34.9406 85.9194 35.2132 85.9194 35.5573C85.9194 35.8947 86.2022 36.1761 86.55 36.1761C86.8981 36.1761 87.179 35.8947 87.179 35.5573ZM90.2978 37.0005H82.8024V37.5895H90.2978V37.0005ZM84.8004 72.776C84.8004 73.589 85.476 74.2515 86.3038 74.2515C87.132 74.2515 87.8075 73.589 87.8075 72.776C87.8075 71.9623 87.132 71.3047 86.3038 71.3047C85.4717 71.3047 84.8004 71.9669 84.8004 72.776ZM77.1238 69.2287C80.4788 69.256 88.0517 69.232 94.8189 69.194V39.6991L77.1238 39.7032V69.2287ZM41.2974 50.4337H49.2272H51.3127H70.1105V58.0513H41.2974V55.1116H60.6109V53.6865H41.2974V50.4337Z" fill="white"/>
</svg>

<svg width="99" height="77" fill="none" xmlns="http://www.w3.org/2000/svg"><path fill-rule="evenodd" clip-rule="evenodd" d="M81.362 6.361H19.188v11.176H13.71V.997h73.131V31.08h-5.48V6.36zM38.797 76.996H0V19.974h38.797v57.022zm-20.449-4.693c0 1.007.836 1.835 1.869 1.835s1.873-.828 1.87-1.835c0-1.009-.837-1.83-1.87-1.83-1.033 0-1.869.821-1.869 1.83zm14.843-46.834H5.61v42.073h27.577l.002-42.073zm8.106 17.403h28.814v5.366H41.297v-5.366zm31.646 33.233V33.162H99v42.943H72.943zm14.236-40.548a.622.622 0 00-.629-.616.622.622 0 00-.63.616c0 .338.282.62.63.62a.626.626 0 00.629-.62zm3.119 1.444h-7.496v.589h7.496V37zM84.8 72.775c0 .813.676 1.475 1.504 1.475s1.504-.662 1.504-1.475c0-.814-.676-1.471-1.504-1.471-.832 0-1.504.662-1.504 1.471zm-7.676-3.547c3.355.027 10.928.003 17.695-.035V39.699l-17.695.004V69.23zM41.297 50.434H70.11v7.617H41.297v-2.94h19.314v-1.424H41.297v-3.253z" fill="#fff"/></svg>
